X:1
T:House At Pooh Corner
C:Kenny Loggins
M:4/4
L:1/8
K:D
V:1
N:PLAY: INTRO, VERSE, CHORUS, VERSE, CHORUS, CODA#1, CHORUS, CODA #2
|"D""^INTRO"d/2c/2|d A2 G-G F-F d/2e/2
|f d2 A-A d-d a/2g/2|g-g f/2g/2 a/2b/2 a f/2e/2 d-
|dA d/2e/2f/2g/2 ag f/2e/2f|d4||
|"D""^VERSE"dd/2d/2-dc-"Em"cBBA-|"F#m"AABD-"Bm"DEFG-
w:Chris-to-pher_ Rob-_in and I_ walked a-long_ as the branch-
w:Win-nie the_ Pooh_ does-n't know_ what to do_ Got a ho-
|"G"GFFE-"A"EDEF-|"D"F4 "A/D"z2 "G/A"z2
w:_es lit up_ by the moon._
w:_ney jar stuck_ on his nose._
|"D"dddc-"Em"cBBA-|"F#m"AABD-"Bm"DEFG-
w:Pos-ing our ques-_tions to owl_ and e-yore,_ as our days
w:Now~he came to me_ ask-ing help_ and ad-vice,_ And from here
|"G"GFFE-"A"EDED-|"D"D4 z AAB-
w:_dis-ap-peared_ all too soon._ But I wan-
w:_no-one knows_ where he goes._ So I sent
|"Bm"BBBF- FBFA-|"F#m"AG/2A/2-AF-F F/2A3/2
w:_dered much far-_ther to-day _than I_ should_ And I
w:_him to ask_ of the owl _if he's_ there_ How to
|"G"BBBB-BBBB-|"E"B^ABc-"A"c=A|
w:can't seem to find_ my way back_ to the woods._ So
w:loos-en a jar_ from the nose_ of a bear._ So
|"D""^CHORUS"DF2A-"F#m"A F2 G-|"Em"G F2 F-"A"F/2E/2E-"A/G"E2
w:help me if_ you can_ I've got_ to get_
|"D"DDF(A"F#m"F)F(G|"Em"B/2)G/2-GA-"A"A2-"A/G"A2
w:back to the house at pooh cor-ner by_ one.__
|"D"DDFA- "F#m"AFFG- "Em"GBGA- "A"A2- "A/G"A2
w:You'd be sur-prised_ there's so much_ to be done__
|"F#m"FFAc- cBcd-|"D"d4 z4|"F#m"FFAc-cBcd-
w:Count all the bees_ in the hive._ Chase all the clouds_ from the sky
|"Bm""^JUMP TO CODA#2 FOR FINAL REPEAT"d2 z2 z4|"G"dd d "F#m"c2 B
w:_Back to the days of
|"Bm"AA/2B/2- BA- AFDE-|1"B#maj7"E4 z4|2"B#maj7"E8||
w:chris-to-pher_ rob-_in and pooh._ pooh.
|"D""^CODA#1"dddc- "Em"cA2 A-|"F#m"AABD- "Bm"D4
|"G"GGGF- "A"F E2 F-|"D"F4 "A"z2 "G/A"z2|"D"z4 "Em"z4
|"F#m"z4 "Bm"z4|"G"z4 "A"z4|"D"z4 "A"z2 "G"A2|
|"G""^CODA#2"dd d "F#m"c2 B|"Bm"AA/2B/2- BB- B B3
w:Back to the days of Chris-to-pher_ Rob-_in
|"G"dd d "F#m"c2 B|"Bm"AA/2B/2- BB- B B3
w:Back to the days of Chris-to-pher_ Rob-_in
|"G"dd d "F#m"c/2B/2- BB|"Bm"B8-|B8||
w:Back to the days__ of Pooh._
